X:1
T: James F. Dickie's Delight
C:J. Murdoch Henderson
R:Strathspey
Q: 128
K:A
M:4/4
L:1/16
|:B,2|A,2CB, A,3C D3F A4|G3B E3G A3c e4|d3f a3g ((3f2e2d2) ((3c2B2A2) |BF3 B3A ((3G2F2E2) ((3D2C2B,2) |
A,2CB, A,3C D3F A4|G3B E3G A3c e4|d3f a3f ((3e2a2g2) ((3f2e2d2) |cE3 c3B A4 A2E2|
A3c ea3 G3B eg3|F3A df3 E3A ce3|CE3 A3c ((3f2e2d2) ((3c2d2e2) |fF3 B3A GB2G ((3E2F2G2) |
A3c ea2A G3B eg2e|F3A df2e E3A ce2A|d2dc d3f ((3e2a2g2) ((3f2e2d2) |cE3 c3B A4 A2:|
